!!!OTL: SCHON WIEDER TOENT VOM SCHACHTE HER
!!!ARE: Europa, Mitteleuropa, Deutschland; France, Elsass, Lembach
!!!SCT: E1531
!!!YEM: Copyright 1995, estate of Helmut Schaffrath.
**kern
*ICvox
*Ivox
*M2/4
*k[b-e-]
*B-:
{8f
8d
8e-
=1
4.f
8f
=2
8g
8a
4b-
=3
4.r}
{8b-
=4
8a
8cc
8b-
8g
=5
4g
4f
=6
8r}
{8f
8d
8e-
=7
4.f
8f
=8
8g
8a
4b-
=9
4.r}
{8b-
=10
8a
8cc
8b-
8g
=11
4g
4f
=12
8r}
{8f
8cc
8b-
=13
4.a
8f
=14
8dd
8cc
4b-
=15
8r}
{8f
8cc
8b-
=16
4.a
8f
=17
8dd
8cc
8b-}
{8f
=18
8.b-
16b-
8cc
8dd
=19
4ee-}
{4cc
=20
2dd
=21
2cc
=22
2b-
=23
8r}
==
!!!AGN: Staende -, Bergmanns - Lied
!!!ONB: ESAC (Essen Associative Code) Database: ERK3
!!!AMT: simple duple
!!!AIN: vox
!!!EED: Helmut Schaffrath
!!!EEV: 1.0
*-
